X:1
T:The Princess Charlotte's Favourite
C:Astor's 24 Country Dances for the year 1804
R:reel
B:RSCDS Book 34 "Royal Albert Country Dance" title tune
Z:Terry Traub <terry@terrytraub.org> 2002-1-31
M:4/4
K:A
L: 1/8
|:e|"A" ceea "D"f2 ed| "A" c2 AB/2c/2 "E"BEEe|"A"ceea "D"gfed|"A"cA"E"BG "A"A2 A :|
|B|"A"cAAc "E"dBBd| "A"cAAc "E"BEEe|"A"cAAc "Bm" dBBd|"E" cABG "A"A2 AB|
|"A"cAAc "Bm"dBBd| "A"cAAc "E"BEEe|"A"cAec "Bm"dBfd|"E"cABG "A"A2 A||
